X:1
T:Title
%%score 1 { 2 | 3 }
L:1/8
Q:1/4=107
M:4/4
K:Ab
V:1 treble nm="Grand Piano, Soprano"
V:2 bass nm="Choir Pad, Ashgabat, 12.10.12.10"
V:3 bass 
V:1
 [CE]4 [_C=D]2 [_DF]2 | [CE]3 [EA] [EA]4 | [EB]4 [DF]2 [DG]2 | [CA]3 [CE] [CE]4 | %4
w: By~Aldine~Silliman~Kieffer,~1882 * *||||
 [CE]4 [_C=D]2 [_DF]2 | [CE]3 [EA] [EA]4 | [FB]4 [EA]2 [EG]2 | [EA]6 z2 | [Ec]4 [Ec]2 [Fd]2 | %9
w: |||||
 [Ec]3 [EB] [EB]4 | [EB]4 [Ec]2 [EB]2 | [DB]3 [CA] [CA]4 | [FA]4 [EG]2 [DF]2 | [CE]3 [EA] [EA]4 | %14
w: |||||
 [FB]4 [EA]2 [EG]2 | [EA]8 |] %16
w: ||
V:2
 A,4 A,2 A,2 | A,3 C C4 | G,4 A,2 B,2 | C3 A, A,4 | A,4 A,2 A,2 | A,3[K:treble] C C4 | D4 C2 B,2 | %7
 C6 z2 | A,4 A,2 A,2 | A,3 G, G,4 | G,4 A,2 G,2 | A,3 A, A,4 | A,4 A,2 A,2 | A,3[K:treble] C C4 | %14
 D4 C2 B,2 | C8 |] %16
V:3
 A,,4 A,,2 A,,2 | A,,3 A,, A,,4 | E,4 E,2 E,2 | A,,3 A,, A,,4 | A,,4 A,,2 A,,2 | A,,3 A,, A,,4 | %6
 D,4 E,2 E,2 | A,,6 z2 | A,,4 A,,2 D,2 | E,3 E, E,4 | E,4 E,2 E,2 | A,,3 A,, A,,4 | D,4 D,2 D,2 | %13
 A,,3 A,, A,,4 | D,4 E,2 E,2 | A,,8 |] %16

